logo/ktor.svg

<?xml version="1.0" encoding="UTF-8"?>
<svg width="512px" height="243px" viewBox="0 0 512 243" version="1.1" xmlns="http://www.w3.org/2000/svg" xmlns:xlink="http://www.w3.org/1999/xlink" preserveAspectRatio="xMidYMid">
    <title>Ktor</title>
    <defs>
        <linearGradient x1="23.9648148%" y1="23.9648148%" x2="74.6407407%" y2="74.6407407%" id="ktorLinearGradient-1">
            <stop stop-color="#00AFFF" offset="29.6%"></stop>
            <stop stop-color="#5282FF" offset="69.4%"></stop>
            <stop stop-color="#945DFF" offset="100%"></stop>
        </linearGradient>
        <linearGradient x1="26.2055556%" y1="26.2055556%" x2="74.1166667%" y2="74.1166667%" id="ktorLinearGradient-2">
            <stop stop-color="#C757BC" offset="10.8%"></stop>
            <stop stop-color="#CD5CA9" offset="17.3%"></stop>
            <stop stop-color="#E8744F" offset="49.2%"></stop>
            <stop stop-color="#F88316" offset="71.6%"></stop>
            <stop stop-color="#FF8900" offset="82.3%"></stop>
        </linearGradient>
    </defs>
    <g>
        <g>
            <polygon fill="url(#ktorLinearGradient-1)" points="161.666667 80.8333333 121.417655 40.584321 80.8333333 0 38.1533333 42.68 0 80.8333333 80.8333333 161.666667"></polygon>
            <polygon fill="url(#ktorLinearGradient-2)" points="80.8333333 161.666667 121.082345 201.915679 161.666667 242.5 204.346667 199.82 242.5 161.666667 161.666667 80.8333333"></polygon>
            <polygon fill="#000000" points="161.666667 80.8333333 80.8333333 80.8333333 80.8333333 161.666667 161.666667 161.666667"></polygon>
        </g>
        <path d="M312.036395,160.522633 L312.036395,138.230349 L319.428419,129.539795 L341.089122,160.522633 L359.804131,160.522633 L330.700877,119.525446 L357.889177,87.5775512 L340.518173,87.5775512 L312.966082,120.33387 L312.036395,120.33387 L312.036395,87.5775512 L296.423712,87.5775512 L296.423712,160.522633 L312.036395,160.522633 L312.036395,160.522633 Z M371.278695,91.574196 L371.278695,105.367926 L362.386034,105.367926 L362.386034,116.544383 L371.278695,116.544383 L371.278695,145.511215 C371.278695,156.323883 376.760818,160.72479 390.61518,160.72479 C393.145836,160.728619 395.671884,160.508816 398.163836,160.067895 L398.163836,149.199649 C396.688276,149.374585 395.203384,149.458954 393.717506,149.452281 C388.599173,149.452281 386.325481,147.128063 386.325481,142.125941 L386.325481,116.544383 L398.163836,116.544383 L398.163836,105.372978 L386.325481,105.372978 L386.325481,91.574196 L371.278695,91.574196 L371.278695,91.574196 Z M435.593854,161.684742 C453.116438,161.684742 463.666367,150.872075 463.666367,132.667384 C463.666367,114.624377 452.964858,103.655078 435.593854,103.655078 C418.222849,103.655078 407.521341,114.669851 407.521341,132.667384 C407.521341,150.816496 418.066217,161.684742 435.593854,161.684742 Z M435.593854,150.058599 C427.529827,150.058599 422.977391,143.692262 422.977391,132.667384 C422.977391,121.753664 427.575301,115.331748 435.593854,115.331748 C443.551775,115.331748 448.205264,121.748611 448.205264,132.667384 C448.205264,143.687209 443.607354,150.058599 435.593854,150.058599 Z M475.964513,160.517581 L491.011299,160.517581 L491.011299,129.383162 C491.011299,121.551558 496.645002,116.746489 504.865661,116.746489 C507.295985,116.746489 510.812628,117.150701 512,117.554913 L512,104.615081 C510.711575,104.210869 508.175145,103.958237 506.108612,103.958237 C498.87322,103.958237 492.97678,108.151935 491.476143,113.709848 L490.546456,113.709848 L490.546456,104.867713 L475.969566,104.867713 L475.969566,160.522633 L475.964513,160.517581 Z" fill="#27282C"></path>
    </g>
</svg>

<svg viewBox="0 0 512 243" xmlns="http://www.w3.org/2000/svg"><defs><linearGradient id="a" x1="23.964%" x2="74.64%" y1="23.964%" y2="74.64%"><stop offset="29.6%" stop-color="#00AFFF"/><stop offset="69.4%" stop-color="#5282FF"/><stop offset="100%" stop-color="#945DFF"/></linearGradient><linearGradient id="b" x1="26.205%" x2="74.116%" y1="26.205%" y2="74.116%"><stop offset="10.8%" stop-color="#C757BC"/><stop offset="17.3%" stop-color="#CD5CA9"/><stop offset="49.2%" stop-color="#E8744F"/><stop offset="71.6%" stop-color="#F88316"/><stop offset="82.3%" stop-color="#FF8900"/></linearGradient></defs><path fill="url(#a)" d="M161.66 80.83l-40.25-40.25L80.82-.01 38.14 42.67 -.02 80.82l80.83 80.83Z"/><path fill="url(#b)" d="M80.83 161.66l40.24 40.24 40.58 40.58 42.68-42.68 38.15-38.16 -80.84-80.84Z"/><path d="M161.66 80.83l-80.84 0 0 80.83 80.83 0Z"/><path fill="#27282C" d="M312.03 160.52v-22.3l7.39-8.7 21.66 30.98h18.71l-29.11-41 27.18-31.95h-17.38l-27.56 32.75h-.93V87.54h-15.62v72.94h15.61v0Zm59.24-68.95v13.79h-8.9v11.17h8.89v28.96c0 10.81 5.48 15.21 19.33 15.21 2.53 0 5.05-.22 7.54-.66v-10.87c-1.48.17-2.97.25-4.45.25 -5.12 0-7.4-2.33-7.4-7.33V116.5h11.83v-11.18h-11.84v-13.8h-15.05v0Zm64.31 70.11c17.52 0 28.07-10.82 28.07-29.02 0-18.05-10.71-29.02-28.08-29.02 -17.38 0-28.08 11.01-28.08 29.01 0 18.14 10.54 29.01 28.07 29.01Zm0-11.63c-8.07 0-12.62-6.37-12.62-17.4 0-10.92 4.59-17.34 12.61-17.34 7.95 0 12.61 6.41 12.61 17.33 0 11.01-4.6 17.39-12.62 17.39Zm40.37 10.45h15.04v-31.14c0-7.84 5.63-12.64 13.85-12.64 2.43 0 5.94.4 7.13.8v-12.94c-1.29-.41-3.83-.66-5.9-.66 -7.24 0-13.14 4.19-14.64 9.75h-.93v-8.85h-14.58v55.65l-.01-.01Z"/></svg>
